fonts/xavani/uni0026.svg

<?xml version="1.0" encoding="UTF-8" standalone="no"?>
<svg width="500" height="850" version="1.1" id="svg2" sodipodi:docname="uni0026.svg" inkscape:version="1.4.2 (ebf0e940, 2025-05-08)" xmlns:inkscape="http://www.inkscape.org/namespaces/inkscape" xmlns:sodipodi="http://sodipodi.sourceforge.net/DTD/sodipodi-0.dtd" xmlns="http://www.w3.org/2000/svg" xmlns:svg="http://www.w3.org/2000/svg">
    <defs id="defs2" />
    <sodipodi:namedview id="namedview2" pagecolor="#ffffff" bordercolor="#000000" borderopacity="0.25" inkscape:showpageshadow="2" inkscape:pageopacity="0.0" inkscape:pagecheckerboard="0" inkscape:deskcolor="#d1d1d1" inkscape:zoom="0.31652174" inkscape:cx="259.06593" inkscape:cy="426.51099" inkscape:window-width="1080" inkscape:window-height="675" inkscape:window-x="0" inkscape:window-y="25" inkscape:window-maximized="0" inkscape:current-layer="svg2" />
    <path id="path1" d="M 163.89648 217.12891 L 55.65625 325.36719 L 42.126953 338.89844 L 42.126953 358.03125 L 55.65625 371.5625 L 74.791016 371.5625 L 88.320312 358.03125 L 183.03125 263.32227 L 316.9707 263.32227 L 411.67969 358.03125 L 411.67969 491.9707 L 316.9707 586.67969 L 183.0293 586.67969 L 88.320312 491.9707 L 74.789062 478.43945 L 55.65625 478.43945 L 42.126953 491.9707 L 42.126953 511.10352 L 55.65625 524.63281 L 163.89648 632.87305 L 336.10352 632.87305 L 457.87305 511.10352 L 457.87305 338.89648 L 336.10352 217.12891 L 163.89648 217.12891 z M 202.16406 309.51562 L 148.04492 363.63477 L 134.51562 377.16406 L 134.51562 396.29883 L 148.04492 409.82812 L 167.17969 409.82812 L 180.70898 396.29883 L 221.29883 355.70898 L 278.69922 355.70898 L 319.28906 396.29883 L 319.28906 453.69922 L 278.69922 494.28906 L 221.30078 494.28906 L 180.71094 453.69922 L 167.17969 440.16992 L 148.04688 440.16992 L 134.51562 453.69922 L 134.51562 472.83594 L 148.04492 486.36523 L 202.16406 540.48438 L 297.83594 540.48438 L 365.48438 472.83594 L 365.48438 377.16406 L 297.83594 309.51562 L 202.16406 309.51562 z M 240.43359 401.90234 L 226.90234 415.43359 L 226.90234 434.56641 L 240.43359 448.09766 L 259.56641 448.09766 L 273.09766 434.56641 L 273.09766 415.43359 L 259.56641 401.90234 L 240.43359 401.90234 z " />
</svg>

<svg width="500" height="850" xmlns="http://www.w3.org/2000/svg">
    <path
        d="m42.127 511.104 13.53 13.529 108.24 108.24h172.207l121.77-121.77V338.897l-121.77-121.769H163.896l-108.24 108.24-13.53 13.53v19.134l13.53 13.53h19.135l13.53-13.53 94.71-94.71H316.97l94.71 94.71V491.97l-94.71 94.71H183.03l-94.71-94.71-13.53-13.53H55.656l-13.53 13.53z" />
    <path
        d="m134.516 472.836 13.529 13.53 54.12 54.118h95.67l67.65-67.648v-95.672l-67.65-67.648h-95.67l-54.12 54.119-13.53 13.53v19.134l13.53 13.53h19.135l13.529-13.53 40.59-40.59H278.7l40.59 40.59V453.7l-40.59 40.59h-57.4l-40.59-40.59-13.53-13.53h-19.134l-13.53 13.53z" />
    <polygon
        points="259.567085809127 401.903011687218 273.096988312782 415.432914190873 273.096988312782 434.567085809127 259.567085809127 448.096988312782 240.432914190873 448.096988312782 226.903011687218 434.567085809127 226.903011687218 415.432914190873 240.432914190873 401.903011687218"
        style="" />
</svg>
